X:268
T:Fin Mayn Mamelyu Hot Men Mikh Aroysgenimen
T:They Took Me Out of My Mother's House
Z:Jack Campin, http://www.campin.me.uk/
F:Jack Campin's Nine-Note Tunebook
% last edit 08-03-2013
G:tango in Yiddish from Buenos Aires
S:Ruth Rubin Archive
M:4/4
L:1/8
Q:1/4=120
K:DMin
  AA |dd A2 A/A/A/A/ GF | B2 A4\
(3AAA|dd A2 A2       GF | G2 F4
  zF |DD DD FD       FA |(G2 F4)\
(3FFG|AB AG FG      (FE)| E2 D4|]

